X:25
T: Vincent Campbell's
S: Traditional Irish Music (K.Tweed)
Z: B.Black
L: 1/8
M: 6/8
R: jig
K: D
dDD FED|=cBc ed^c|dAG FGE|DF/G/A f2 e|
d2 D FED|=cBc ed^c|dAF GFE|FAD DFA :|
dcd efg|fAa ecA|dcd efg|fdc def|
gbg faf|ecA G2 e|dAF GFE|1 F/G/AD DFA :|2\
FAd f2 e ||
